client/resources/icons/tech/typescript.svg

<svg xmlns="http://www.w3.org/2000/svg" viewBox="0 0 32 32">
  <path d="M0 16v16h32V0H0v16zm25.786-1.276c.767.18 1.464.583 2.005 1.156.292.312.729.885.766 1.026.01.042-1.38.974-2.224 1.495-.031.021-.156-.109-.292-.313-.411-.599-.844-.859-1.505-.906-.969-.063-1.594.443-1.589 1.292a1.26 1.26 0 00.135.599c.214.443.615.708 1.854 1.245 2.292.984 3.271 1.635 3.88 2.557.682 1.031.833 2.677.375 3.906-.51 1.328-1.771 2.234-3.542 2.531-.547.099-1.849.083-2.438-.026-1.286-.229-2.505-.865-3.255-1.698-.297-.323-.87-1.172-.833-1.229.016-.021.146-.104.292-.188l1.188-.688.922-.536.193.286c.271.411.859.974 1.214 1.161 1.021.542 2.422.464 3.115-.156.281-.234.438-.594.417-.958 0-.37-.047-.536-.24-.813-.25-.354-.755-.656-2.198-1.281-1.651-.714-2.365-1.151-3.01-1.854a4.237 4.237 0 01-.88-1.599c-.12-.453-.151-1.589-.057-2.042.339-1.599 1.547-2.708 3.281-3.036.563-.109 1.875-.068 2.427.068l-.001.001zm-7.51 1.339l.01 1.307h-4.167v11.839h-2.948V17.37H7.01v-1.281c0-.714.016-1.307.036-1.323.016-.021 2.547-.031 5.62-.026l5.594.016.016 1.307z"/>
</svg>

<svg width="32" height="32" viewBox="0 0 32 32" fill="none" xmlns="http://www.w3.org/2000/svg">
<path d="M0 16V32H32V0H0V16ZM25.786 14.724C26.5531 14.9046 27.2503 15.3066 27.791 15.88C28.083 16.192 28.52 16.765 28.557 16.906C28.567 16.948 27.177 17.88 26.333 18.401C26.302 18.422 26.177 18.292 26.041 18.088C25.63 17.489 25.197 17.229 24.536 17.182C23.567 17.119 22.942 17.625 22.947 18.474C22.9419 18.6817 22.9883 18.8875 23.082 19.073C23.296 19.516 23.697 19.781 24.936 20.318C27.228 21.302 28.207 21.953 28.816 22.875C29.498 23.906 29.649 25.552 29.191 26.781C28.681 28.109 27.42 29.015 25.649 29.312C25.102 29.411 23.8 29.395 23.211 29.286C21.925 29.057 20.706 28.421 19.956 27.588C19.659 27.265 19.086 26.416 19.123 26.359C19.139 26.338 19.269 26.255 19.415 26.171L20.603 25.483L21.525 24.947L21.718 25.233C21.989 25.644 22.577 26.207 22.932 26.394C23.953 26.936 25.354 26.858 26.047 26.238C26.328 26.004 26.485 25.644 26.464 25.28C26.464 24.91 26.417 24.744 26.224 24.467C25.974 24.113 25.469 23.811 24.026 23.186C22.375 22.472 21.661 22.035 21.016 21.332C20.61 20.8693 20.3097 20.3236 20.136 19.733C20.016 19.28 19.985 18.144 20.079 17.691C20.418 16.092 21.626 14.983 23.36 14.655C23.923 14.546 25.235 14.587 25.787 14.723L25.786 14.724ZM18.276 16.063L18.286 17.37H14.119V29.209H11.171V17.37H7.01V16.089C7.01 15.375 7.026 14.782 7.046 14.766C7.062 14.745 9.593 14.735 12.666 14.74L18.26 14.756L18.276 16.063Z" />
</svg>
